src/images/Exit.svg

<svg width="18" height="16" viewBox="0 0 18 16" fill="none" xmlns="http://www.w3.org/2000/svg">
<path fill-rule="evenodd" clip-rule="evenodd" d="M6 2L2 2L2 14H6V16H2C0.89543 16 0 15.1046 0 14V2C0 0.89543 0.895432 0 2 0H6V2ZM13.5856 9.00002L9.29274 13.1339L10.707 14.4958L17.4141 8.03706L10.707 1.57837L9.29274 2.9402L13.5856 7.0741H4V9.00002H13.5856Z" fill="white"/>
</svg>

<svg xmlns="http://www.w3.org/2000/svg" fill="none" viewBox="0 0 18 16"><path fill="#fff" fill-rule="evenodd" d="M6 2H2v12h4v2H2a2 2 0 0 1-2-2V2a2 2 0 0 1 2-2h4v2zm7.586 7l-4.293 4.134 1.414 1.362 6.707-6.459-6.707-6.459L9.293 2.94l4.293 4.134H4V9h9.586z" clip-rule="evenodd"/></svg>
